X:1
T:Title
%%score ( 1 2 ) { 3 | 4 }
L:1/8
Q:1/4=115
M:3/4
K:Bb
V:1 treble nm="Grand Piano, Soprano"
V:2 treble 
V:3 bass nm="Choir Pad, Merthyr Tydfil, Parry, LMD"
V:4 bass 
V:1
 D2 G2 ^F2 | G4 D2 | [B,F]4 [A,C]2 | [B,D]6 | G2 A2 B2 | A4 D2 | [DF]4 [_D=E]2 | D6 | %8
w: By~Joseph~Parry,~1870 * *||||||||
 [B,D]2 [DG]2 [D^F]2 | [DG]4 [B,D]2 | [CF]4 C2 | [A,D]6 | [DG]2 [DA]2 [DB]2 | [EA]4 [DG]2 | %14
w: ||||||
 [DG]4 [D^F]2 | [DG]6 | [DG]2 [DA]2 [DB]2 | [Ec]4 [Dc]2 | B>A G2 [=EB]2 | [^FA]6 | %20
w: ||||||
 D2 [Gd]2 [^Fc]2 | [GB]4 [^FA]2 | G2 [^Fc]2 [GB]2 | [^FA]6 | D2 G2 ^F2 | G4 [B,D]2 | %26
w: ||||||
 [B,F]4 [A,C]2 | [B,D]6 | [B,G]2 [EA]2 [DB]2 | D4 G2 | z2 z2 ^F2 | [B,G]6- | [B,G]2 z2 z2 |] %33
w: |||||||
V:2
 x6 | x6 | x6 | x6 | x6 | x6 | x6 | x6 | x6 | x6 | x6 | x6 | x6 | x6 | x6 | x6 | x6 | x6 | D4 z2 | %19
 x6 | x6 | x6 | x6 | x6 | x6 | x6 | x6 | x6 | x6 | A3- [CA] B,C | [DG]4 DC | x6 | x6 |] %33
V:3
 D,2 G,2 ^F,2 | G,4 G,2 | D,4 F,2 | F,6 | G,2 A,2 B,2 | A,4 F,2 | A,4 G,2 | F,6 | G,2 G,2 C2 | %9
 B,4 G,2 | F,4 G,2 | ^F,6 | G,2 ^F,2 G,2 | G,2 ^F,2 G,A, | B,4 A,2 | B,6 | G,2 ^F,2 G,B, | %17
 A,4 A,2 | B,>[K:treble]C D2 _D2 | D6 | D2 D2 D2 | D4 E2 | D4 D2 | D6 | D,2 G,2 ^F,2 | G,4 G,2 | %26
 D,4 F,2 | F,6 | G,2 ^F,2 G,2 | G,2 ^F,2 G,A, | B,4 A,2 | G,6- | G,2 z2 z2 |] %33
V:4
 z6 | z2 z2 G,,2 | F,,4 F,,2 | B,,6 | z6 | z2 z2 D,2 | A,,4 A,,2 | D,6 | G,,2 B,,2 A,,2 | %9
 G,,4 B,,2 | A,,4 E,2 | D,6 | B,,2 D,2 z2 | C,4 B,,C, | D,4 D,2 | G,,6 | B,,2 D,2 z2 | G,4 ^F,2 | %18
 G,>A, B,2 G,2 | D,6 | D,2 B,2 A,2 | G,4 C2 | B,2 A,2 G,2 | D,6 | z6 | z2 z2 G,,2 | F,,4 F,,2 | %27
 B,,6 | E,2 C,2 B,,2 | D,4 E,2 | D,4 D,2 | G,,6- | G,,2 z2 z2 |] %33

